X:023
T: Stad Erro Rogura Stad Stad
T: Stad Air a R\'ogaire Stad Stad
N: O'Farrell's Pocket Companion v.1 (Sky ed. p.27)
N: "Irish" ( = Stop It You Rogue Stop Stop!)
D: O'Sullivan Meets O'Farrell track 8a
N: Reminiscent of "An Coileach ag Fogairt an Lae" ("The Cock is Crowing for Day")
M: 6/8
L: 1/8
R: jig
Q: 320
K: A
E/F/|AcA BAF|d2z d2z| AcA BAF|B2z B2z|
AcA BAF|Fdc dfa|ecA BAF | A3 A2 :|
c/d/|ecA ecA|d3 dfa|ecA ecA|B3 B3|
AcA BAF|DFA dfa|ecA BAF | A3 A2 :|
